X:1
T:Hear My Cry and Supplication
T:Tune: Johann Crüger, 1649; adapt. Service Book and Hymnal, 1958 Text under copyright; for copyrighted material see Psalter Hymnal 142
T:87 87 HERR, ICH HABE MISGEHANDELT www.hymnary.org/text/hear_my_cry_and_supplication
T:Hear My Cry and Supplication
T:This music is in the public domain. You may freely use this score for personal and congregational worship. If you reproduce the score, please credit Hymnary.org as the source. 
T:This music is in the public domain. You may freely use this score for personal and congregational worship. If you reproduce the score, please credit Hymnary.org as the source. 
Z:This music is in the public domain. You may freely use this score for personal and congregational worship. If you reproduce the score, please credit Hymnary.org as the source.
%%score ( 1 2 ) ( 3 4 )
L:1/8
M:2/2
K:G
V:1 treble nm="SOPRANO ALTO" snm="S. A."
V:2 treble 
V:3 bass nm="TENOR BASS" snm="T. B."
V:4 bass 
V:1
 E4 ^D4 | E2 F2 G2 A2 | F4 E4 | G4 F4 | E2 F2 G2 A2 | B8 | B4 c4 | d2 G2 |1 c2 B2 | A4 G4 | A4 A4 | %11
 B2 E2 F2 F2 | E8 |] %13
V:2
 B,4 B,4 | B,2 ^D2 E2 F2 | ^D4 E4 | B,4 ^D4 | E2 E2 E2 E2 | ^D8 | D4 G4 | G2 G2 |1 A2 G2 | F4 G4 | %10
 E4 D4 | D2 E2 E2 ^D2 | B,8 |] %13
V:3
 G,4 F,4 | G,2 A,2 B,2 C2 | B,4 G,4 | G,4 B,4 | G,2 C2 B,2 A,2 | F,8 | G,4 G,4 | B,2 E2 |1 E2 D2 | %9
 C4 B,4 | G,4 F,4 | G,2 G,2 C2 B,2 | G,8 |] %13
V:4
 E,4 B,,4 | G,2 F,2 E,2 A,,2 | B,,4 E,4 | E,4 B,,4 | C,2 A,,2 E,2 C,2 | B,,8 | G,4 E,4 | %7
 B,,2 C,2 |1 A,,2 B,,2 | D,4 G,,4 | C,4 D,4 | G,,2 C,2 A,,2 B,,2 | E,8 |] %13

